static char *collectible_xpm[] = {
"32 32 3 1",
"  c None",
". c #FFFF00",
"o c #FFD700",
"                                ",
"                                ",
"                                ",
"               ..               ",
"              .oo.              ",
"             .oooo.             ",
"            .oooooo.            ",
"           ..oooooo..           ",
"           .ooooooo..           ",
"           .ooooooo.            ",
"            .ooooo.             ",
"             .ooo.              ",
"              .o.               ",
"               ..               ",
"                                ",
"                                ",
"                                ",
"                                ",
"                                ",
"                                ",
"                                ",
"                                ",
"                                ",
"                                ",
"                                ",
"                                ",
"                                ",
"                                ",
"                                ",
"                                ",
"                                ",
"                                "
};
