static char *exit_xpm[] = {
"32 32 3 1",
"  c None",
". c #006400",
"o c #00FF00",
"                                ",
"           ..........           ",
"          .oooooooooo.          ",
"         .oooooooooooo.         ",
"         .oo......oooo.         ",
"         .oo......oooo.         ",
"         .oo......oooo.         ",
"         .oooooooooooo.         ",
"         .oooooooooooo.         ",
"         .oooooooooooo.         ",
"         .oooooooooooo.         ",
"         .oooooooooooo.         ",
"         .oooooooooooo.         ",
"         .oooooooooooo.         ",
"          .oooooooooo.          ",
"           ..........           ",
"                                ",
"                                ",
"                                ",
"                                ",
"                                ",
"                                ",
"                                ",
"                                ",
"                                ",
"                                ",
"                                ",
"                                ",
"                                ",
"                                ",
"                                ",
"                                "
};
