static char *player_xpm[] = {
"32 32 3 1",
"  c None",
". c #0000FF",
"o c #ADD8E6",
"                                ",
"                                ",
"                                ",
"           ..........           ",
"          .oooooooooo.          ",
"         .oooooooooooo.         ",
"         .oooo..oooooo.         ",
"         .oooo..oooooo.         ",
"         .oooooooooooo.         ",
"         .oooooooooooo.         ",
"         .oooooooooooo.         ",
"         .oooooooooooo.         ",
"         .oooooooooooo.         ",
"         .oooooooooooo.         ",
"          .oooooooooo.          ",
"           ..........           ",
"                                ",
"                                ",
"                                ",
"                                ",
"                                ",
"                                ",
"                                ",
"                                ",
"                                ",
"                                ",
"                                ",
"                                ",
"                                ",
"                                ",
"                                ",
"                                ",
"                                "
};
